X:1
T:Title
%%score { ( 1 4 ) | ( 2 3 ) }
L:1/8
Q:1/4=100
M:4/4
K:G
V:1 treble nm="Grand Piano"
V:4 treble 
V:2 bass 
V:3 bass 
V:1
 D2 B2 B2 B2 | [EB]>[EA] [EA]>[E^G] [EA]4 | D2 [Fc]2 [Ec]2 [Fc]2 | c>B B>_B =B4 | D2 d2 B2 G2 | %5
w: John~J.~Thomas * * *|||||
 [EA]>[E^G] [EA]>[EB] [Ec]2 [Ge]2 | [Gd]3 [B,G] [DFB]2 [CFA]2 | [B,DG]6 z2 | [DB]2 [EB]4 [GB]2 | %9
w: ||||
 [Fc]>c [Ac]4 [Ac]>d | [ce]2 [ce]2 [Bd]2 [Ac]2 | [Bd]6 z2 | [B^d]2 [Fd]4 [Ad]2 | %13
w: ||||
 [Ge]>e [Be]4 [Ae]>e | [E^c]2 [Fc]2 [Gc]2 [Bc]2 | [Ac]6[K:bass] z2 | [DB]2 [EB]4 [GB]2 | %17
w: ||||
 [Fc]>c [Ac]4 [Ac]>d | [ce]2 [ce]2 [Bd]2 [Ac]2 | [Bd]6 z2 | [d=f]2 [Gf]4 [df]2 | %21
w: ||||
 [ce]>f [eg]4 [df]>e | [Bd]2 [Bd]2 [Ac]2 [Dc]2 | [GB]6 z2 |] %24
w: |||
V:2
 [G,B,]2 [G,D]2 [G,D]2 [G,^D]2 | [C,C]>[C,C] [C,C]>[C,C] [C,C]4 | [D,F,]2 [D,A,]2 [D,G,]2 [D,A,]2 | %3
 [G,E]>[G,D] [G,D]>[G,^C] [G,D]4 | [G,B,]2[K:treble] [G,B,D]2 [G,DG]2 [G,B,=F]2 | %5
 [C,C]>[C,C] [C,C]>[B,,^G,] [A,,A,]2 [^C,_B,]2 | [D,B,]3 D, D,2 D,2 | G,6 z2 | %8
 A,,2 [D,G,B,]2 B,,2 [D,G,B,]2 | z z/ G/ [D,F,C]2 D,,2 z z/[K:treble] B/ | %10
 A,,2 [D,F,C]2 D,,2 [D,F,C]2 | G,,2 D,2 G,2 D,2 | B,,2 [F,B,]2 B,,2 [F,B,]2 | %13
 z z/ A/ [E,G,B,]2 E,,2 z z/ G/ | A,,2 [E,A,]2 A,,2 [E,G,]2 | D,,2 D,2 F,2 D,2 | %16
 A,,2 [D,G,B,]2 B,,2 [D,G,B,]2 | z z/ G/ [D,F,C]2 D,,2 z z/[K:treble] B/ | %18
 A,,2 [D,F,C]2 D,,2 [D,F,C]2 | G,,2 D,2 G,2 D,2 | G,,2 [D,G,B,]2 B,,2 [D,G,B,]2 | %21
 z z/[K:treble] d/[K:bass] [E,G,C]2 C,2 z z/[K:treble] c/ | D,2 [G,B,]2 D,,2 [D,F,]2 | %23
 [G,,G,]2 D,2 G,,2 z2 |] %24
V:3
 x8 | x8 | x8 | x8 | x2[K:treble] x6 | x8 | x8 | x8 | x8 | A,,2 z2 z2 [D,F,C]2[K:treble] | x8 | %11
 x8 | x8 | E,,2 z2 z2 [E,G,B,]2 | x8 | x8 | x8 | A,,2 z2 z2 [D,F,C]2[K:treble] | x8 | x8 | x8 | %21
 C,2[K:treble][K:bass] z2 z2 [E,G,C]2[K:treble] | x8 | x8 |] %24
V:4
 x8 | x8 | x8 | x8 | x8 | x8 | x8 | x8 | x8 | x8 | x8 | z2 [G,B,]2 [B,D]2 [G,B,]2 | x8 | x8 | x8 | %15
 z2[K:bass] [F,C]2 [CD]2 [F,C]2 | x8 | x8 | x8 | z2 [G,B,]2 [B,D]2 [G,B,]2 | x8 | x8 | x8 | x8 |] %24

